!! 00000] TT[WS
!!!OTL: Ku laope
!!!ARE: Asia, China,ÿShanxi Dingxiang
!! Ethnic Group: Han
!! WI, 203
!!!SCT: J0239
!!!YEM: Copyright 1995, estate of Helmut Schaffrath.
**kern
*ICvox
*Ivox
*M2/4
*k[f#]
*G:
{16ee
8dd
16dd
16b
8b
16dd
=1
8a
16e
16g
4a
=2
16ee
8dd
16dd
16b
8b
16dd
=3
8a
16e
16g
4a}
=4
{16ee
8dd
16dd
16b
8b
16dd
=5
8a
8a
8.dd
16f#
=6
8a
16a
16a
8dd
16f#
16e
=7
8.d
16e
8.g
16a}
=8
{8dd
16dd
16b
16a
16b
16a
16b
=9
16a
16b
16a
16g
8e
16r
16g
=10
8e
16r
16g
16e
16d
8c
=11
2d}
==
!!!AGN: Xiaodiao. Qingge, Aisu
!!!ONB: ESAC (Essen Associative Code) Database: CHINA
!!!AMT: simple duple
!!!AIN: vox
!!!EED: Helmut Schaffrath
!!!EEV: 1.0
*-
